epam-assets/icon-sources/18/file-file_archive.svg

<svg width="18" height="18" viewBox="0 0 18 18" fill="none" xmlns="http://www.w3.org/2000/svg">
<g id="18/file-file_archive">
<path id="icon" fill-rule="evenodd" clip-rule="evenodd" d="M15.6422 3.73444L14.5611 2.42778C14.3511 2.16333 14.0322 2 13.6667 2H4.33333C3.96778 2 3.64889 2.16333 3.43111 2.42778L2.35778 3.73444C2.13222 3.99889 2 4.34889 2 4.72222V14.4444C2 15.3 2.7 16 3.55556 16H14.4444C15.3 16 16 15.3 16 14.4444V4.72222C16 4.34889 15.8678 3.99889 15.6422 3.73444ZM9 13.2778L4.72222 9H7.44444V7.44444H10.5556V9H13.2778L9 13.2778ZM3.64889 3.55556L4.27889 2.77778H13.6122L14.3433 3.55556H3.64889Z" fill="#6C6F80"/>
</g>
</svg>

<svg xmlns="http://www.w3.org/2000/svg" width="18" height="18" fill="none" viewBox="0 0 18 18">
  <path fill="#6C6F80" fill-rule="evenodd" d="m15.642 3.734-1.08-1.306A1.129 1.129 0 0 0 13.666 2H4.333c-.365 0-.684.163-.902.428L2.358 3.734A1.523 1.523 0 0 0 2 4.722v9.722C2 15.3 2.7 16 3.556 16h10.888C15.3 16 16 15.3 16 14.444V4.722c0-.373-.132-.723-.358-.988ZM9 13.278 4.722 9h2.722V7.444h3.112V9h2.722L9 13.278ZM3.649 3.556l.63-.778h9.333l.731.778H3.65Z" clip-rule="evenodd"/>
</svg>
